packages/gamut-icons/src/email.svg

<?xml version="1.0" encoding="utf-8"?>
<!-- Generated by IcoMoon.io -->
<!DOCTYPE svg PUBLIC "-//W3C//DTD SVG 1.1//EN" "http://www.w3.org/Graphics/SVG/1.1/DTD/svg11.dtd">
<svg version="1.1" xmlns="http://www.w3.org/2000/svg" xmlns:xlink="http://www.w3.org/1999/xlink" width="16" height="16" viewBox="0 0 16 16">
<path fill="#444" d="M0.2 3.8c-0.1-0.1-0.2-0.1-0.2 0.1v8.9c0 0.1 0.1 0.2 0.2 0.1l4.8-5c0.1-0.1 0.1-0.2 0-0.3l-4.8-3.8zM15.8 2.1c0.1-0.1 0.1-0.2-0.1-0.2h-15.4c-0.1 0-0.2 0.1 0 0.2l7.5 6c0.1 0.1 0.3 0.1 0.4 0l7.6-6zM10.4 8.4c-0.1-0.1-0.3-0.1-0.4 0l-1.8 1.4c-0.1 0.1-0.3 0.1-0.4 0l-1.9-1.5c-0.1-0.1-0.3-0.1-0.4 0l-5.4 5.6c-0.1 0.1-0.1 0.2 0.1 0.2h15.5c0.1 0 0.2-0.1 0.1-0.2l-5.4-5.5zM11 7.6c-0.1 0.1-0.1 0.2 0 0.3l4.8 4.9c0.1 0.1 0.2 0.1 0.2-0.1v-7.8c0-0.1 0-0.4 0-0.5v-0.5c0-0.1-0.1-0.2-0.2-0.1l-0.3 0.2c-0.1 0.1-0.3 0.2-0.4 0.3l-4.1 3.3z"></path>
</svg>

<svg xmlns="http://www.w3.org/2000/svg" viewBox="0 0 16 16">
    <path fill="#444" d="M.2 3.8c-.1-.1-.2-.1-.2.1v8.9c0 .1.1.2.2.1l4.8-5c.1-.1.1-.2 0-.3L.2 3.8zm15.6-1.7c.1-.1.1-.2-.1-.2H.3c-.1 0-.2.1 0 .2l7.5 6c.1.1.3.1.4 0l7.6-6zm-5.4 6.3c-.1-.1-.3-.1-.4 0L8.2 9.8c-.1.1-.3.1-.4 0L5.9 8.3c-.1-.1-.3-.1-.4 0L.1 13.9c-.1.1-.1.2.1.2h15.5c.1 0 .2-.1.1-.2l-5.4-5.5zm.6-.8c-.1.1-.1.2 0 .3l4.8 4.9c.1.1.2.1.2-.1V3.9c0-.1-.1-.2-.2-.1l-.3.2c-.1.1-.3.2-.4.3L11 7.6z"/>
</svg>
